packages/icons/src/emoji/svg/spanner.svg

<svg width="120" height="120" viewBox="0 0 120 120" fill="none" xmlns="http://www.w3.org/2000/svg">
<g clip-path="url(#clip0_212_554)">
<path d="M68.3161 75.6375C65.7661 73.2468 63.263 70.8187 60.9005 68.2593C59.1005 66.3187 53.8411 62.7281 55.4255 59.4937C56.2973 57.7312 58.5942 54.7312 60.713 54.5812C60.9942 54.5625 61.2755 54.6093 61.6036 54.7031C63.0286 55.1625 64.1067 56.6531 65.0817 57.7125C66.2902 59.0307 67.4595 60.3844 68.588 61.7718C70.913 64.5843 73.1536 67.4531 75.5536 70.2187C78.2911 73.3875 81.038 76.5468 83.7755 79.7156C85.5661 81.7875 87.6192 83.8031 89.2223 86.025C89.6911 86.6906 90.0848 87.8531 89.6442 88.575C89.138 89.4281 88.4442 90.3937 87.7411 91.0781C86.9911 91.8187 86.0255 92.0718 85.0223 91.7437C84.3286 91.5187 83.6911 90.6843 83.138 90.1875C78.0661 85.4906 73.2567 80.3156 68.3161 75.6375Z" fill="white"/>
<path d="M64.4626 71.4657C61.9219 69.0751 59.4094 66.6563 57.0469 64.0876C55.2469 62.1469 49.9876 58.5563 51.5719 55.3219C52.4438 53.5594 54.7407 50.5594 56.8594 50.4094C57.1407 50.3907 57.4219 50.4282 57.7501 50.5313C59.1751 50.9907 60.2532 52.4813 61.2282 53.5407C62.4376 54.8532 63.6001 56.2126 64.7438 57.6001C67.0688 60.4126 69.3094 63.2907 71.7094 66.0469C74.4469 69.2157 77.1938 72.3844 79.9313 75.5438C81.7313 77.6157 83.7751 79.6313 85.3782 81.8532C85.8469 82.5188 86.2407 83.6813 85.8001 84.4032C85.2938 85.2563 84.6001 86.2219 83.8876 86.9063C83.1376 87.6469 82.1719 87.9001 81.1688 87.5719C80.4844 87.3469 79.8376 86.5126 79.2844 86.0157C74.2126 81.3188 69.4032 76.1438 64.4626 71.4657Z" fill="#2F2F2F"/>
<path d="M118.65 96.4219C118.453 95.3907 118.294 94.2188 117.844 93.2813C117.324 92.1977 116.689 91.1731 115.95 90.2251C114.563 88.4157 112.838 86.7844 110.86 85.6407C109.528 84.8719 107.935 84.1969 106.378 83.9063C104.672 83.5876 102.938 83.5126 101.203 83.4376C99.769 83.3813 98.0159 83.3157 96.5909 83.1001C95.6815 82.9594 94.1909 81.6001 94.1815 81.5907L74.869 59.5407C74.869 59.5407 67.6128 51.0469 66.8346 49.1626C65.944 47.0063 64.9971 43.7438 64.9971 39.6563C65.3628 32.7469 65.0346 20.7001 58.7346 12.3188C53.0346 4.74381 45.0753 1.71568 38.9628 0.740684C37.1721 0.450059 35.3253 0.346934 33.5065 0.431309C30.5065 0.562559 27.1784 0.937559 24.3471 2.00631C23.4096 2.35318 22.0878 2.96256 21.919 4.07818C21.7409 5.24068 22.9503 6.36568 23.719 7.07818C26.3253 9.46881 28.9503 11.8594 31.5753 14.2313C33.8628 16.3126 36.6378 18.8907 37.5096 20.7001C38.5128 22.7813 38.3159 29.5219 38.3159 33.1969C38.3159 35.1844 36.2253 35.8969 36.2253 35.8969C33.0096 36.9938 26.2128 39.3844 24.2159 39.2532C23.0721 39.1688 21.7784 38.5876 20.569 37.8094C19.8471 37.3501 15.1596 33.4407 13.5096 32.1094C11.4378 30.4594 9.37526 28.8376 7.19088 27.0282C6.46901 26.4188 5.24088 25.3501 4.24713 25.1813C3.44088 25.0501 2.78463 25.7532 2.65338 25.9219C2.04401 26.6626 1.72526 27.6938 1.72526 27.6938C1.72526 27.6938 0.628383 32.0438 1.12526 37.6313C1.77213 44.7751 4.72526 53.6907 12.7315 59.8219C21.2815 66.3563 34.6503 65.8501 41.7096 65.0251H41.7003C41.7003 65.0251 41.7284 65.0251 41.7378 65.0157C42.1315 64.9688 42.544 64.9219 42.8909 64.8751C44.5315 64.7813 47.6346 65.0907 50.7846 68.0438C54.9753 71.9626 76.0315 93.7219 79.669 97.4719C80.1471 98.0344 80.7284 98.8219 81.3284 99.9188C82.5284 102.094 83.4565 106.481 83.719 107.775C84.5159 111.6 86.4659 113.981 89.5315 116.353C91.7909 118.097 94.519 119.203 97.369 119.513C98.8221 119.672 100.294 119.588 101.738 119.334C103.791 118.988 107.241 118.247 108.085 115.969C108.441 115.003 107.728 114.488 107.063 113.916C105.882 112.913 104.663 111.956 103.463 110.981C102.403 110.119 100.894 109.228 100.163 108.056C99.6565 107.241 99.544 106.247 99.5346 105.309C99.5159 104.513 99.3846 103.725 99.3846 102.938C99.394 101.888 99.1409 100.622 99.844 99.7219C100.641 98.7094 102.272 98.8219 103.425 98.7001C105.525 98.4657 107.822 98.2407 109.632 99.5438C111.394 100.8 113.063 102.234 114.806 103.538C115.697 104.203 117.703 106.275 118.378 104.25C119.213 101.803 119.128 98.9063 118.65 96.4219ZM68.7659 75.3751C66.5159 73.2469 64.2752 71.0907 62.1659 68.8032C60.5721 67.0782 55.8753 63.8813 57.2909 60.9938C58.069 59.4188 60.1128 56.7563 62.0065 56.6251C62.2503 56.6063 62.5034 56.6438 62.794 56.7376C64.0596 57.1407 65.0253 58.4719 65.8877 59.4188C66.9659 60.5907 67.9971 61.8001 69.0096 63.0282C71.0815 65.5313 73.0878 68.0907 75.2159 70.5469C77.6534 73.3594 80.1003 76.1813 82.5378 79.0032C84.1315 80.8501 85.9596 82.6407 87.3846 84.6188C87.8065 85.2094 88.1534 86.2407 87.7596 86.8876C87.3003 87.6469 86.6909 88.5094 86.0628 89.1188C85.3971 89.775 84.5253 90.0094 83.6346 89.7094C83.0253 89.5032 82.4534 88.7719 81.9659 88.3219C77.4565 84.1407 73.1721 79.5376 68.7659 75.3751Z" fill="#78A3AD"/>
<path d="M12.0844 38.1749C10.8657 37.0874 8.71882 35.1655 8.2782 34.7999C7.65945 34.2749 6.95632 34.2374 6.88132 35.353C6.7032 37.903 7.1532 42.778 9.61882 46.4718C10.2376 47.3999 10.6594 46.453 10.8751 45.7499C11.0157 45.2905 11.8501 42.5155 12.4126 40.6499C12.7126 39.6655 12.5813 38.6249 12.0844 38.1749ZM30.9001 5.08117C32.5219 4.65929 35.5407 4.07804 37.9782 4.75304C38.3626 4.86554 39.2157 5.12804 38.2501 5.55929C36.5251 6.33742 34.6219 7.21867 33.9844 7.49992C33.6469 7.64992 32.7188 8.10929 32.0532 7.49992C31.5094 7.00304 30.7313 6.30929 30.3751 5.99054C29.7938 5.46554 30.1876 5.26867 30.9001 5.08117Z" fill="white"/>
</g>
<defs>
<clipPath id="clip0_212_554">
<rect width="120" height="120" fill="white"/>
</clipPath>
</defs>
</svg>

<svg xmlns="http://www.w3.org/2000/svg" fill="none" aria-hidden="true" data-slot="icon" viewBox="0 0 120 120"><g clip-path="url(#a)"><path fill="#fff" d="M68.316 75.638c-2.55-2.391-5.053-4.82-7.416-7.379-1.8-1.94-7.059-5.53-5.474-8.765.871-1.763 3.168-4.763 5.287-4.913.281-.019.563.028.89.122 1.426.46 2.504 1.95 3.479 3.01a91 91 0 0 1 3.506 4.059c2.325 2.812 4.566 5.681 6.966 8.447 2.737 3.169 5.484 6.328 8.221 9.497 1.791 2.072 3.844 4.087 5.447 6.309.47.666.863 1.828.422 2.55-.506.853-1.2 1.819-1.903 2.503-.75.74-1.716.994-2.719.666-.693-.225-1.33-1.06-1.884-1.556-5.072-4.697-9.881-9.872-14.822-14.55"/><path fill="#2F2F2F" d="M64.463 71.466c-2.541-2.39-5.054-4.81-7.416-7.378-1.8-1.941-7.06-5.532-5.475-8.766.872-1.763 3.169-4.763 5.287-4.913.282-.018.563.02.891.122 1.425.46 2.503 1.95 3.478 3.01a97 97 0 0 1 3.516 4.06c2.325 2.812 4.565 5.69 6.965 8.446 2.738 3.169 5.485 6.337 8.222 9.497 1.8 2.072 3.844 4.087 5.447 6.31.469.665.863 1.827.422 2.55-.506.852-1.2 1.818-1.912 2.502-.75.74-1.716.994-2.72.666-.684-.225-1.33-1.06-1.884-1.556-5.071-4.697-9.88-9.872-14.821-14.55"/><path fill="#78A3AD" d="M118.65 96.422c-.197-1.031-.356-2.203-.806-3.14a16.8 16.8 0 0 0-1.894-3.057c-1.387-1.81-3.112-3.44-5.09-4.584-1.332-.77-2.925-1.444-4.482-1.735-1.706-.318-3.44-.393-5.175-.468-1.434-.057-3.187-.122-4.612-.338-.91-.14-2.4-1.5-2.41-1.51L74.87 59.54s-7.256-8.493-8.034-10.377c-.891-2.157-1.838-5.42-1.838-9.507.366-6.91.038-18.956-6.262-27.337C53.035 4.744 45.075 1.716 38.963.74a26.6 26.6 0 0 0-5.456-.31c-3 .132-6.329.507-9.16 1.575-.937.347-2.26.957-2.428 2.072-.178 1.163 1.031 2.288 1.8 3a1442 1442 0 0 0 7.856 7.153c2.288 2.082 5.063 4.66 5.935 6.47 1.003 2.08.806 8.82.806 12.496 0 1.987-2.09 2.7-2.09 2.7-3.216 1.097-10.013 3.487-12.01 3.356-1.144-.084-2.438-.665-3.647-1.444-.722-.459-5.41-4.368-7.06-5.7-2.071-1.65-4.134-3.271-6.318-5.08-.722-.61-1.95-1.679-2.944-1.848-.806-.13-1.462.572-1.594.74-.609.742-.928 1.773-.928 1.773s-1.097 4.35-.6 9.937c.647 7.144 3.6 16.06 11.607 22.19 8.55 6.535 21.918 6.03 28.978 5.204h-.01s.028 0 .038-.01c.394-.046.806-.093 1.153-.14 1.64-.094 4.744.216 7.894 3.169 4.19 3.919 25.246 25.678 28.884 29.428a14.4 14.4 0 0 1 1.66 2.447c1.2 2.175 2.128 6.562 2.39 7.856.797 3.825 2.747 6.206 5.813 8.578a15.64 15.64 0 0 0 7.837 3.16c1.453.159 2.925.075 4.369-.179 2.053-.346 5.503-1.087 6.347-3.365.356-.966-.357-1.481-1.022-2.053-1.181-1.003-2.4-1.96-3.6-2.935-1.06-.862-2.569-1.753-3.3-2.925-.507-.815-.619-1.809-.628-2.747-.02-.796-.15-1.584-.15-2.371.009-1.05-.244-2.316.459-3.216.797-1.013 2.428-.9 3.581-1.022 2.1-.234 4.397-.46 6.207.844 1.762 1.256 3.431 2.69 5.174 3.994.891.665 2.897 2.737 3.572.712.835-2.447.75-5.344.272-7.828M68.766 75.375c-2.25-2.128-4.49-4.284-6.6-6.572-1.594-1.725-6.29-4.922-4.875-7.81.778-1.574 2.822-4.237 4.716-4.368.243-.019.496.019.787.113 1.266.403 2.231 1.734 3.094 2.68a88 88 0 0 1 3.122 3.61c2.072 2.503 4.078 5.063 6.206 7.519 2.437 2.812 4.884 5.634 7.322 8.456 1.594 1.847 3.422 3.638 4.847 5.616.421.59.768 1.622.375 2.269-.46.759-1.07 1.621-1.697 2.23-.666.657-1.538.891-2.428.591-.61-.206-1.182-.937-1.67-1.387-4.508-4.181-8.793-8.784-13.2-12.947"/><path fill="#fff" d="M12.084 38.175c-1.218-1.088-3.365-3.01-3.806-3.375-.619-.525-1.322-.563-1.397.553-.178 2.55.272 7.425 2.738 11.119.619.928 1.04-.019 1.256-.722.14-.46.975-3.234 1.538-5.1.3-.984.168-2.025-.329-2.475M30.9 5.08c1.622-.422 4.64-1.003 7.078-.328.385.113 1.238.375.272.806-1.725.778-3.628 1.66-4.266 1.94-.337.15-1.265.61-1.93 0-.545-.496-1.323-1.19-1.679-1.508-.581-.525-.187-.722.525-.91"/></g><defs><clipPath id="a"><path fill="#fff" d="M0 0h120v120H0z"/></clipPath></defs></svg>
